svg/emoji_u1f4b7.svg

<svg xmlns="http://www.w3.org/2000/svg" width="128" height="128"><path d="M123.84 40.19H4.15c-1.82 0-3.29 1.47-3.29 3.29v58.54c0 1.81 1.47 3.29 3.29 3.29h119.69c1.81 0 3.29-1.47 3.29-3.29V43.48c0-1.81-1.47-3.29-3.29-3.29z" fill="#7f9588"/><path d="M123.85 22.69H4.15c-1.82 0-3.29 1.47-3.29 3.29v58.54c0 1.81 1.47 3.29 3.29 3.29h119.69c1.81 0 3.29-1.47 3.29-3.29V25.98a3.29 3.29 0 0 0-3.28-3.29z" fill="#bfd4bd"/><path d="M51.53 68.68l-3.27-4.13-.11-.06-.38-.2-.53.19-.01.01c-.06.06-3.36 3.21-8.03 3.37-1.38 0-3.93-.68-6.38-1.32-.96-.26-1.89-.5-2.78-.71.21-.44.4-.88.57-1.33.51-1.31.88-2.65 1.12-3.98h7.62c.19 0 .36-.08.48-.21.13-.13.21-.3.21-.48v-6.05a.69.69 0 0 0-.68-.69h-7.29c-.27-3.77-1.04-6.55-1.12-6.8-.08-.27-.77-2.64 1.63-3.56 2.02-.79 4.13 2.26 4.69 3.37l.49.37.58-.16L44 41.25c.23-.21.29-.55.15-.82-.16-.32-4.07-7.79-11.78-7.79-.77 0-1.54.07-2.32.22-7.12 1.35-10.64 6.59-9.4 14.01.12.76.3 1.59.5 2.48.26 1.18.52 2.45.72 3.75h-6.94a.69.69 0 0 0-.68.69v6.05c0 .18.08.35.2.48.12.13.29.21.48.21h6.41c-.58 1.47-1.57 2.83-3.12 3.98-1.17.87-2.64 1.63-4.54 2.23l-.41.37v.56l.43 1.03 2.86 6.7c.06.15.18.26.33.33l.01.02h.06c.08.03.15.07.24.07l.09-.01c.13-.02 1.4-.22 3.15-.94.72-.12 1.58-.19 2.59-.19 2.84 0 6.05.57 9.61 1.72 2.34.6 4.59.9 6.67.9 9.69 0 13.12-6.37 13.26-6.65l-.07-.75z" fill="#849086"/><path fill="#e0e0e0" d="M78.5 20.69h22V87.8h-22z"/><path fill="#bdbdbd" d="M78.5 87.81h22v19.5h-22z"/></svg>

<?xml version="1.0" encoding="UTF-8" standalone="no"?>
<!DOCTYPE svg PUBLIC "-//W3C//DTD SVG 1.1//EN" "http://www.w3.org/Graphics/SVG/1.1/DTD/svg11.dtd">
<svg width="100%" height="100%" viewBox="0 0 128 128" version="1.1" xmlns="http://www.w3.org/2000/svg" xmlns:xlink="http://www.w3.org/1999/xlink" xml:space="preserve" xmlns:serif="http://www.serif.com/" style="fill-rule:evenodd;clip-rule:evenodd;stroke-linejoin:round;stroke-miterlimit:2;">
    <path d="M123.84,40.19L4.15,40.19C2.33,40.19 0.86,41.66 0.86,43.48L0.86,102.02C0.86,103.83 2.33,105.31 4.15,105.31L123.84,105.31C125.65,105.31 127.13,103.84 127.13,102.02L127.13,43.48C127.13,41.67 125.66,40.19 123.84,40.19Z" style="fill:rgb(104,37,144);fill-rule:nonzero;"/>
    <path d="M123.85,22.69L4.15,22.69C2.33,22.69 0.86,24.16 0.86,25.98L0.86,84.52C0.86,86.33 2.33,87.81 4.15,87.81L123.84,87.81C125.65,87.81 127.13,86.34 127.13,84.52L127.13,25.98C127.13,24.179 125.651,22.695 123.85,22.69Z" style="fill:rgb(181,111,193);fill-rule:nonzero;"/>
    <path d="M51.53,68.68L48.26,64.55L48.15,64.49L47.77,64.29L47.24,64.48L47.23,64.49C47.17,64.55 43.87,67.7 39.2,67.86C37.82,67.86 35.27,67.18 32.82,66.54C31.86,66.28 30.93,66.04 30.04,65.83C30.25,65.39 30.44,64.95 30.61,64.5C31.12,63.19 31.49,61.85 31.73,60.52L39.35,60.52C39.54,60.52 39.71,60.44 39.83,60.31C39.96,60.18 40.04,60.01 40.04,59.83L40.04,53.78C40.04,53.405 39.735,53.095 39.36,53.09L32.07,53.09C31.8,49.32 31.03,46.54 30.95,46.29C30.87,46.02 30.18,43.65 32.58,42.73C34.6,41.94 36.71,44.99 37.27,46.1L37.76,46.47L38.34,46.31L44,41.25C44.23,41.04 44.29,40.7 44.15,40.43C43.99,40.11 40.08,32.64 32.37,32.64C31.6,32.64 30.83,32.71 30.05,32.86C22.93,34.21 19.41,39.45 20.65,46.87C20.77,47.63 20.95,48.46 21.15,49.35C21.41,50.53 21.67,51.8 21.87,53.1L14.93,53.1C14.555,53.105 14.25,53.415 14.25,53.79L14.25,59.84C14.25,60.02 14.33,60.19 14.45,60.32C14.57,60.45 14.74,60.53 14.93,60.53L21.34,60.53C20.76,62 19.77,63.36 18.22,64.51C17.05,65.38 15.58,66.14 13.68,66.74L13.27,67.11L13.27,67.67L13.7,68.7L16.56,75.4C16.62,75.55 16.74,75.66 16.89,75.73L16.9,75.75L16.96,75.75C17.04,75.78 17.11,75.82 17.2,75.82L17.29,75.81C17.42,75.79 18.69,75.59 20.44,74.87C21.16,74.75 22.02,74.68 23.03,74.68C25.87,74.68 29.08,75.25 32.64,76.4C34.98,77 37.23,77.3 39.31,77.3C49,77.3 52.43,70.93 52.57,70.65L52.5,69.9L51.53,68.68Z" style="fill:rgb(104,37,144);fill-rule:nonzero;"/>
    <rect x="78.5" y="20.69" width="22" height="67.11" style="fill:rgb(224,224,224);fill-rule:nonzero;"/>
    <rect x="78.5" y="87.81" width="22" height="19.5" style="fill:rgb(189,189,189);fill-rule:nonzero;"/>
</svg>
